.local/share/icons/Gruvbox-Plus-Dark/status/symbolic/network-cellular-edge-symbolic.svg

<svg width="16" height="16" version="1.1" xmlns="http://www.w3.org/2000/svg">
  <defs>
    <style id="current-color-scheme" type="text/css">.ColorScheme-Text { color:#ebdbb2; } .ColorScheme-Highlight { color:#458588; } .ColorScheme-NeutralText { color:#fe8019; } .ColorScheme-PositiveText { color:#689d6a; } .ColorScheme-NegativeText { color:#fb4934; }</style>
  </defs>
  <path class="ColorScheme-Text" d="m3 1s-2 0-2 2.06v9.94c0 2 2 2 2 2h10c2 0 2-2 2-2v-10s0-2-2-2zm3 2h6v2h-6v2h4v2h-4v2h6v2h-6s-2 0-2-2v-6c0-2 2-2 2-2z" fill="currentColor"/>
</svg>

<svg xmlns="http://www.w3.org/2000/svg" width="16" height="16" version="1.1">
 <path style="fill:#ebdbb2" d="M 3 1 C 1.892 1 1 1.892 1 3 L 1 13 C 1 14.108 1.892 15 3 15 L 13 15 C 14.108 15 15 14.108 15 13 L 15 3 C 15 1.892 14.108 1 13 1 L 3 1 z M 6 3 L 12 3 L 12 5 L 6 5 L 6 7 L 10 7 L 10 9 L 6 9 L 6 11 L 12 11 L 12 13 L 6 13 C 6 13 4 13 4 11 L 4 5 C 4 3 6 3 6 3 z"/>
</svg>
